img/star.svg

<svg width="34" height="32" fill="none" xmlns="http://www.w3.org/2000/svg"><path d="M10.875 25.875L17 22.208l6.125 3.709-1.625-6.959 5.375-4.666-7.083-.625L17 7.125l-2.792 6.5-7.083.625 5.375 4.708-1.625 6.917zm-4.167 5.792l2.709-11.709-9.084-7.875 12-1.041L17 0l4.667 11.042 12 1.041-9.084 7.875 2.709 11.709L17 25.458 6.708 31.667z" fill="#1C1B1F"/></svg>

<svg width="34" height="32" viewBox="0 0 34 32" fill="none" xmlns="http://www.w3.org/2000/svg">
<path d="M10.875 25.875L17 22.208L23.125 25.917L21.5 18.958L26.875 14.292L19.792 13.667L17 7.125L14.208 13.625L7.12501 14.25L12.5 18.958L10.875 25.875ZM6.70801 31.667L9.41701 19.958L0.333008 12.083L12.333 11.042L17 0L21.667 11.042L33.667 12.083L24.583 19.958L27.292 31.667L17 25.458L6.70801 31.667Z" fill="#1C1B1F"/>
</svg>
